static/images/past-sponsors/wincent.svg

<svg fill="none" height="60" viewBox="0 0 301 60" width="301" xmlns="http://www.w3.org/2000/svg"><g fill="#b69133"><path d="m118.61 32.7056 7.61-17.2295 7.605 17.2172 5.611-15.2438h5.537l-10.711 26.9691-8.042-18.2307-8.038 18.2348-10.712-26.9691h5.537z"/><path d="m146.757 17.4536h5.001v25.0039h-5.001z"/><path d="m174.443 17.4536h5.002v26.2564l-18.042-16.3644v15.1119h-5.001v-26.2563l18.041 16.3602z"/><path d="m190.412 23.5961c-.829.8326-1.478 1.8263-1.908 2.9196s-.632 2.2632-.593 3.4374c-.039 1.1749.162 2.3453.593 3.4394.43 1.094 1.079 2.0883 1.908 2.9218.776.8043 1.709 1.4411 2.741 1.8712 1.031.4301 2.14.6443 3.258.6296 1.62.0213 3.221-.3535 4.664-1.0918 1.339-.6773 2.496-1.6663 3.374-2.884v5.9369c-2.096 1.8375-4.775 2.7548-8.038 2.7521-4.024 0-7.32-1.2676-9.888-3.8027s-3.855-5.7926-3.86-9.7725c0-3.9744 1.286-7.2305 3.86-9.7684 2.574-2.5378 5.87-3.8068 9.888-3.8068 3.263 0 5.942.9174 8.038 2.7521v5.9286c-.881-1.2074-2.038-2.1864-3.374-2.8551-1.441-.744-3.043-1.1244-4.664-1.1082-1.118-.0155-2.227.1984-3.259.6285-1.031.4302-1.964 1.0674-2.74 1.8723z"/><path d="m213.916 31.7415v6.25h11.252v4.466h-16.253v-25.0039h16.253v4.4619h-11.252v5.5372h10.539v4.2888z"/><path d="m247.675 17.4536h4.997v26.2564l-18.037-16.3644v15.1119h-5.001v-26.2563l18.041 16.3602z"/><path d="m255.173 21.9155v-4.4619h17.864v4.4619h-6.431v20.542h-5.006v-20.542z"/><path d="m89.5023 19.089c-.6637-1.4162-1.5638-2.7091-2.6614-3.8233 0 0-.0454-.0371-.0618-.0577 2.0098-.0277 3.9517-.7316 5.5124-1.9981-.182-.0333-.3674-.0444-.552-.033-3.1889.5521-6.0811-.1359-8.7755-1.648-.7539-.4119-1.5038-.8239-2.2536-1.2648 1.7661-.84359 3.1271-2.35117 3.7862-4.19406-.8002.89038-1.8278 1.54605-2.9724 1.89663-1.1446.35057-2.3631.38283-3.5247.0933-.445-.1236-.8734-.29664-1.3266-.38316-.2198-.04254-.4441-.05639-.6675-.0412-.9591-.47613-2.0319-.67585-3.0982-.57679-.9031.02513-1.8057-.06486-2.6861-.26779-.1678-.05882-.3509-.0568-.5174.00571-.1664.06251-.3056.18152-.3932.33624-.094.15631-.2138.2956-.3543.41199.0264.09832.0826.18609.1607.25132.1924.16243.4411.24238.6922.22248 1.9775-.28428 2.1382.67566 3.2259.46967-.4038.2443-.8519.40646-1.3185.47716-.4667.0707-.9426.04856-1.4007-.06517-.7106-.19398-1.3358-.62042-1.7757-1.21126-.1618.01343-.3248-.00049-.482-.0412-.7225-.25098-1.4309-.54118-2.1218-.8693-.1256-.06768-.2467-.14337-.3625-.2266-1.1124-.64683-1.4667-.72099-2.2495.32959.0064.01816.0162.03493.0288.04944.0919.07043.1989.1186.3126.14076.1136.02216.2309.0177.3425-.01304.228-.06188.4654-.08142.7004-.05768.1524.03296.309.14832.3007.30488-.0074.05893-.0304.11481-.0666.16189s-.0843.08364-.1394.1059c-.1122.03956-.2325.05088-.3502.03296-.4626-.0706-.8932-.27875-1.2359-.59739-.0371.04944-.0742.09888-.1113.15656-.4404.68509-.6458 1.49498-.585 2.30716-.031.7154.1282 1.4262.4614 2.06-.1595-.7278-.1268-1.4846.0948-2.19596.0605-.195.142-.38287.2431-.56031.0904.00654.178.03464.2555.08194.0774.04731.1423.11244.1894.18998.1631.26691.2394.57782.2184.8899.0318.51545.0937 1.02855.1854 1.53675.0262.5017.1996.9846.4985 1.3884-.1051-.6069-.0482-1.2307.1648-1.8086.0645-.218.2126-.4017.412-.5109.2188-.0703.4555-.06.6674.0288.5515.3288 1.1666.5367 1.8045.6098 1.1989.1236 2.0229 1.4502 3.7409 1.1577.0907 0 .0536 1.1948-1.1124 1.339-.4713.0193-.9418-.0549-1.3843-.2184-.5875-.16-1.2139-.0892-1.7509.1978-.4101.2452-.8368.4614-1.2772.6468-.4976.1866-1.044.1982-1.5491.0329-.1391-.1876-.2373-.4024-.2884-.6303-.0693-.328-.0465-.6688.0659-.9847-.176.1521-.3144.3427-.4044.5572-.0901.2144-.1293.4467-.1147.6788.0056.0731-.0033.1466-.0261.2162-.0229.0696-.0593.1341-.1072.1896-.0478.0555-.1062.101-.1717.1339s-.1369.0525-.21.0577c-.173 0-.2595-.033-.412-.0412-.0871-.0215-.1634-.0743-.2142-.1483-.0653-.1016-.11-.215-.1318-.3337-.0021-.4652.0789-.927.2389-1.3637-.2729.3158-.4615.6957-.5479 1.1041-.0797.3903-.0584.7944.0618 1.1742l.0618.4697c-.0482.0607-.0817.1316-.0982.2073-.0164.0757-.0152.1542.0034.2294.136.3131 0 .1112 1.1083.2101.663.1028 1.3317.1647 2.0023.1854.6218-.0517 1.2264-.2312 1.7756-.5274.3501-.2146.7481-.3387 1.1581-.361s.8191.0579 1.1903.2333c.7086.3585 1.3925.7622 2.06 1.1783.5447.3498 1.1541.5866 1.7921.6963.5915.1398 1.2113.0996 1.7799-.1154.6775-.3117 1.3232-.6883 1.9281-1.1247-.0343.0843-.0728.1668-.1154.2472-.3393.5429-.806.9947-1.3596 1.3164-.5535.3216-1.1772.5033-1.8168.5293 1.0534 1.3966 1.7965 3.0021 2.1794 4.7091.1831 1.0398.1831 2.1037 0 3.1435-.102.5643-.2396 1.1216-.412 1.6686l-.2596.7539c.0742-.1277-5.7061 10.8478-5.7061 10.8478l-3.6585-5.9863-9.7189-16.2572-13.3898 22.2476s-5.0386-7.7537-6.6042-11.7789c-.3683-1.1098-.4934-2.2859-.3667-3.4483.824-4.5979 3.1229-3.9263 3.399-7.2182-.412 1.2566-2.7522.5397-3.984 2.1795 2.1012-3.7698 5.8421-2.781 7.1687-6.9421-1.5079 1.442-3.0364.824-4.4125.9558 3.5761-1.2689 5.8503-6.11808 8.7343-4.41243-.3173-1.34309-4.6349-3.15174-8.1575.92287 1.3967-1.40078.7746-2.90867 2.6203-3.64202-5.5537.58503-4.3465 3.04463-6.0192 4.52368.103-1.51201-.169-3.15174-1.1454-3.70794.1854 2.78096-1.4914 2.70268-1.9157 7.26344.2884.5068-1.3019-2.1012-2.8716-1.9652 2.1876 3.2341-.5315 6.7196-1.0177 11.4534-.0997.6683-.1176 1.3462-.0535 2.0188.0946.6577.2661 1.3021.5109 1.9199.1776.4396.3883.8652.6303 1.273-.0577.1195-.1195.2307-.173.3543-.5416 1.1927-.7549 2.5083-.618 3.811.0659.6886.2469 1.3612.5356 1.9899.3306.6714.8012 1.2643 1.3801 1.7386 1.0836.8734 2.0188 1.3925 2.8263 2.06.8056.6628 1.5364 1.4115 2.1795 2.233.6779.8731 1.2893 1.7958 1.8292 2.7603l1.1989 2.2907c.0824.1813.1731.3543.2554.5356l3.7286 7.2305 9.8878-16.8423 3.7945-6.5466 3.7944 6.5466 9.9126 16.8423 9.2987-17.0689c.088.6866.0588 1.3832-.0865 2.06 1.4955-1.5615 2.3154-3.4525 2.7727-5.6485.2968 1.0675.2968 2.1956 0 3.263.4944-.3048 1.4131-2.1382 1.7139-3.3659.2968-1.2529.3832-2.5463.2554-3.8275.5876 1.2118.8999 2.5385.9146 3.8851 1.0759-2.3634 1.4368-4.9899 1.0383-7.5559.8693.5768 1.3843 1.8045 1.3389 3.2712.571-.9685.8805-2.0688.8982-3.1929.0329-1.1101-.2002-2.212-.6798-3.2136 1.0015.3014 1.8778.9203 2.4967 1.7633 0-1.4625-1.3843-3.9675-3.5802-6.4353 1.2127.2453 2.3774.6864 3.4483 1.306zm-58.1817 12.8377c.0568.408.1577.8086.3008 1.1948l.0618.1648.9723 1.8869c.012.0144.023.0295.033.0454-.3337-.169-.6551-.3379-.9229-.4986-.3591-.2061-.6697-.4871-.9105-.8239-.25-.3963-.4454-.8245-.5809-1.2731-.2799-.9369-.3139-1.9301-.0989-2.884.2457-.6803.5361-1.3437.8693-1.9858.4453-.7985.8402-1.6241 1.1824-2.4719.1853-.409.2811-.8529.2811-1.3019s-.0958-.8929-.2811-1.3019c.263.3964.44.8436.5195 1.3127.0794.4691.0597.9496-.058 1.4106-.2011.9136-.4598 1.8135-.7746 2.6944-.2975.8507-.5046 1.7303-.618 2.6244-.0366.402-.0283.8069.0247 1.2071z"/></g></svg>

<svg width="301" height="60" viewBox="0 0 301 60" fill="none" xmlns="http://www.w3.org/2000/svg">
<path d="M118.61 32.7056L126.22 15.4761L133.825 32.6933L139.436 17.4495H144.973L134.262 44.4186L126.22 26.1879L118.182 44.4227L107.47 17.4536H113.007L118.61 32.7056Z" fill="#B69133"/>
<path d="M146.757 17.4536H151.758V42.4575H146.757V17.4536Z" fill="#B69133"/>
<path d="M174.443 17.4536H179.445V43.71L161.403 27.3456V42.4575H156.402V16.2012L174.443 32.5614V17.4536Z" fill="#B69133"/>
<path d="M190.412 23.5961C189.583 24.4287 188.934 25.4224 188.504 26.5157C188.074 27.609 187.872 28.7789 187.911 29.9531C187.872 31.128 188.073 32.2984 188.504 33.3925C188.934 34.4865 189.583 35.4808 190.412 36.3143C191.188 37.1186 192.121 37.7554 193.153 38.1855C194.184 38.6156 195.293 38.8298 196.411 38.8151C198.031 38.8364 199.632 38.4616 201.075 37.7233C202.414 37.046 203.571 36.057 204.449 34.8393V40.7762C202.353 42.6137 199.674 43.531 196.411 43.5283C192.387 43.5283 189.091 42.2607 186.523 39.7256C183.955 37.1905 182.668 33.933 182.663 29.9531C182.663 25.9787 183.949 22.7226 186.523 20.1847C189.097 17.6469 192.393 16.3779 196.411 16.3779C199.674 16.3779 202.353 17.2953 204.449 19.13V25.0586C203.568 23.8512 202.411 22.8722 201.075 22.2035C199.634 21.4595 198.032 21.0791 196.411 21.0953C195.293 21.0798 194.184 21.2937 193.152 21.7238C192.121 22.154 191.188 22.7912 190.412 23.5961Z" fill="#B69133"/>
<path d="M213.916 31.7415V37.9915H225.168V42.4575H208.915V17.4536H225.168V21.9155H213.916V27.4527H224.455V31.7415H213.916Z" fill="#B69133"/>
<path d="M247.675 17.4536H252.672V43.71L234.635 27.3456V42.4575H229.634V16.2012L247.675 32.5614V17.4536Z" fill="#B69133"/>
<path d="M255.173 21.9155V17.4536H273.037V21.9155H266.606V42.4575H261.6V21.9155H255.173Z" fill="#B69133"/>
<path d="M89.5023 19.089C88.8386 17.6728 87.9385 16.3799 86.8409 15.2657C86.8409 15.2657 86.7955 15.2286 86.7791 15.208C88.7889 15.1803 90.7308 14.4764 92.2915 13.2099C92.1095 13.1766 91.9241 13.1655 91.7395 13.1769C88.5506 13.729 85.6584 13.041 82.964 11.5289C82.2101 11.117 81.4602 10.705 80.7104 10.2641C82.4765 9.42051 83.8375 7.91293 84.4966 6.07004C83.6964 6.96042 82.6688 7.61609 81.5242 7.96667C80.3796 8.31724 79.1611 8.3495 77.9995 8.05997C77.5545 7.93637 77.1261 7.76333 76.6729 7.67681C76.4531 7.63427 76.2288 7.62042 76.0054 7.63561C75.0463 7.15948 73.9735 6.95976 72.9072 7.05882C72.0041 7.08395 71.1015 6.99396 70.2211 6.79103C70.0533 6.73221 69.8702 6.73423 69.7037 6.79674C69.5373 6.85925 69.3981 6.97826 69.3105 7.13298C69.2165 7.28929 69.0967 7.42858 68.9562 7.54497C68.9826 7.64329 69.0388 7.73106 69.1169 7.79629C69.3093 7.95872 69.558 8.03867 69.8091 8.01877C71.7866 7.73449 71.9473 8.69443 73.035 8.48844C72.6312 8.73274 72.1831 8.8949 71.7165 8.9656C71.2498 9.0363 70.7739 9.01416 70.3158 8.90043C69.6052 8.70645 68.98 8.28001 68.5401 7.68917C68.3783 7.7026 68.2153 7.68868 68.0581 7.64797C67.3356 7.39699 66.6272 7.10679 65.9363 6.77867C65.8107 6.71099 65.6896 6.6353 65.5738 6.55207C64.4614 5.90524 64.1071 5.83108 63.3243 6.88166C63.3307 6.89982 63.3405 6.91659 63.3531 6.9311C63.445 7.00153 63.552 7.0497 63.6657 7.07186C63.7793 7.09402 63.8966 7.08956 64.0082 7.05882C64.2362 6.99694 64.4736 6.9774 64.7086 7.00114C64.861 7.0341 65.0176 7.14946 65.0093 7.30602C65.0019 7.36495 64.9789 7.42083 64.9427 7.46791C64.9065 7.51499 64.8584 7.55155 64.8033 7.57381C64.6911 7.61337 64.5708 7.62469 64.4531 7.60677C63.9905 7.53617 63.5599 7.32802 63.2172 7.00938C63.1801 7.05882 63.143 7.10826 63.1059 7.16594C62.6655 7.85103 62.4601 8.66092 62.5209 9.4731C62.4899 10.1885 62.6491 10.8993 62.9823 11.5331C62.8228 10.8053 62.8555 10.0485 63.0771 9.33714C63.1376 9.14214 63.2191 8.95427 63.3202 8.77683C63.4106 8.78337 63.4982 8.81147 63.5757 8.85877C63.6531 8.90608 63.718 8.97121 63.7651 9.04875C63.9282 9.31566 64.0045 9.62657 63.9835 9.93865C64.0153 10.4541 64.0772 10.9672 64.1689 11.4754C64.1951 11.9771 64.3685 12.46 64.6674 12.8638C64.5623 12.2569 64.6192 11.6331 64.8322 11.0552C64.8967 10.8372 65.0448 10.6535 65.2442 10.5443C65.463 10.474 65.6997 10.4843 65.9116 10.5731C66.4631 10.9019 67.0782 11.1098 67.7161 11.1829C68.915 11.3065 69.739 12.6331 71.457 12.3406C71.5477 12.3406 71.5106 13.5354 70.3446 13.6796C69.8733 13.6989 69.4028 13.6247 68.9603 13.4612C68.3728 13.3012 67.7464 13.372 67.2094 13.659C66.7993 13.9042 66.3726 14.1204 65.9322 14.3058C65.4346 14.4924 64.8882 14.504 64.3831 14.3387C64.244 14.1511 64.1458 13.9363 64.0947 13.7084C64.0254 13.3804 64.0482 13.0396 64.1606 12.7237C63.9846 12.8758 63.8462 13.0664 63.7562 13.2809C63.6661 13.4953 63.6269 13.7276 63.6415 13.9597C63.6471 14.0328 63.6382 14.1063 63.6154 14.1759C63.5925 14.2455 63.5561 14.31 63.5082 14.3655C63.4604 14.421 63.402 14.4665 63.3365 14.4994C63.271 14.5323 63.1996 14.5519 63.1265 14.5571C62.9535 14.5571 62.867 14.5241 62.7145 14.5159C62.6274 14.4944 62.5511 14.4416 62.5003 14.3676C62.435 14.266 62.3903 14.1526 62.3685 14.0339C62.3664 13.5687 62.4474 13.1069 62.6074 12.6702C62.3345 12.986 62.1459 13.3659 62.0595 13.7743C61.9798 14.1646 62.0011 14.5687 62.1213 14.9485L62.1831 15.4182C62.1349 15.4789 62.1014 15.5498 62.0849 15.6255C62.0685 15.7012 62.0697 15.7797 62.0883 15.8549C62.2243 16.168 62.0883 15.9661 63.1966 16.065C63.8596 16.1678 64.5283 16.2297 65.1989 16.2504C65.8207 16.1987 66.4253 16.0192 66.9745 15.723C67.3246 15.5084 67.7226 15.3843 68.1326 15.362C68.5426 15.3397 68.9517 15.4199 69.3229 15.5953C70.0315 15.9538 70.7154 16.3575 71.3829 16.7736C71.9276 17.1234 72.537 17.3602 73.175 17.4699C73.7665 17.6097 74.3863 17.5695 74.9549 17.3545C75.6324 17.0428 76.2781 16.6662 76.883 16.2298C76.8487 16.3141 76.8102 16.3966 76.7676 16.477C76.4283 17.0199 75.9616 17.4717 75.408 17.7934C74.8545 18.115 74.2308 18.2967 73.5912 18.3227C74.6446 19.7193 75.3877 21.3248 75.7706 23.0318C75.9537 24.0716 75.9537 25.1355 75.7706 26.1753C75.6686 26.7396 75.531 27.2969 75.3586 27.8439L75.099 28.5978C75.1732 28.4701 69.3929 39.4456 69.3929 39.4456L65.7344 33.4593L56.0155 17.2021L42.6257 39.4497C42.6257 39.4497 37.5871 31.696 36.0215 27.6708C35.6532 26.561 35.5281 25.3849 35.6548 24.2225C36.4788 19.6246 38.7777 20.2962 39.0538 17.0043C38.6418 18.2609 36.3016 17.544 35.0698 19.1838C37.171 15.414 40.9119 16.4028 42.2385 12.2417C40.7306 13.6837 39.2021 13.0657 37.826 13.1975C41.4021 11.9286 43.6763 7.07942 46.5603 8.78507C46.243 7.44198 41.9254 5.63333 38.4028 9.70794C39.7995 8.30716 39.1774 6.79927 41.0231 6.06592C35.4694 6.65095 36.6766 9.11055 35.0039 10.5896C35.1069 9.07759 34.8349 7.43786 33.8585 6.88166C34.0439 9.66262 32.3671 9.58434 31.9428 14.1451C32.2312 14.6519 30.6409 12.0439 29.0712 12.1799C31.2588 15.414 28.5397 18.8995 28.0535 23.6333C27.9538 24.3016 27.9359 24.9795 28 25.6521C28.0946 26.3098 28.2661 26.9542 28.5109 27.572C28.6885 28.0116 28.8992 28.4372 29.1412 28.845C29.0835 28.9645 29.0217 29.0757 28.9682 29.1993C28.4266 30.392 28.2133 31.7076 28.3502 33.0103C28.4161 33.6989 28.5971 34.3715 28.8858 35.0002C29.2164 35.6716 29.687 36.2645 30.2659 36.7388C31.3495 37.6122 32.2847 38.1313 33.0922 38.7988C33.8978 39.4616 34.6286 40.2103 35.2717 41.0318C35.9496 41.9049 36.561 42.8276 37.1009 43.7921L38.2998 46.0828C38.3822 46.2641 38.4729 46.4371 38.5552 46.6184L42.2838 53.8489L52.1716 37.0066L55.9661 30.46L59.7605 37.0066L69.6731 53.8489L78.9718 36.78C79.0598 37.4666 79.0306 38.1632 78.8853 38.84C80.3808 37.2785 81.2007 35.3875 81.658 33.1915C81.9548 34.259 81.9548 35.3871 81.658 36.4545C82.1524 36.1497 83.0711 34.3163 83.3719 33.0886C83.6687 31.8357 83.7551 30.5423 83.6273 29.2611C84.2149 30.4729 84.5272 31.7996 84.5419 33.1462C85.6178 30.7828 85.9787 28.1563 85.5802 25.5903C86.4495 26.1671 86.9645 27.3948 86.9191 28.8615C87.4901 27.893 87.7996 26.7927 87.8173 25.6686C87.8502 24.5585 87.6171 23.4566 87.1375 22.455C88.139 22.7564 89.0153 23.3753 89.6342 24.2183C89.6342 22.7558 88.2499 20.2508 86.054 17.783C87.2667 18.0283 88.4314 18.4694 89.5023 19.089ZM31.3206 31.9267C31.3774 32.3347 31.4783 32.7353 31.6214 33.1215L31.6832 33.2863L32.6555 35.1732C32.6675 35.1876 32.6785 35.2027 32.6885 35.2186C32.3548 35.0496 32.0334 34.8807 31.7656 34.72C31.4065 34.5139 31.0959 34.2329 30.8551 33.8961C30.6051 33.4998 30.4097 33.0716 30.2742 32.623C29.9943 31.6861 29.9603 30.6929 30.1753 29.739C30.421 29.0587 30.7114 28.3953 31.0446 27.7532C31.4899 26.9547 31.8848 26.1291 32.227 25.2813C32.4123 24.8723 32.5081 24.4284 32.5081 23.9794C32.5081 23.5304 32.4123 23.0865 32.227 22.6775C32.49 23.0739 32.667 23.5211 32.7465 23.9902C32.8259 24.4593 32.8062 24.9398 32.6885 25.4008C32.4874 26.3144 32.2287 27.2143 31.9139 28.0952C31.6164 28.9459 31.4093 29.8255 31.2959 30.7196C31.2593 31.1216 31.2676 31.5265 31.3206 31.9267Z" fill="#B69133"/>
</svg>
